archdroid-icon-theme/Archdroid-BlueGreyDark/mimetypes/scalable/x-office-presentation-template.svg

<svg fill="#263238" height="48" viewBox="0 0 48 48" width="48" xmlns="http://www.w3.org/2000/svg"><path d="m4 4c-2.21 0-3.980469 1.79-3.980469 4l-.019531 32c0 2.21 1.770469 4 3.980469 4h18.019531v-9h-17.666016l5.832031-7.5 4.167969 5.007813 5.832032-7.507813 1.833984 2.445313v-9.445313h-4v-11l4 4v-5l-2-2zm24-2c-2.21 0-4 1.79-4 4v36c0 2.21 1.79 4 4 4h16c2.21 0 4-1.79 4-4v-36c0-2.21-1.79-4-4-4zm0 4h16v36h-16v-4h8v-4h-8v-4h8v-4h-8v-4h8v-4h-8v-4h8v-4h-8z" fill="#dd5900"/></svg>

<svg fill="#263238" height="48" version="1.1" viewBox="0 0 48 48" width="48" xmlns="http://www.w3.org/2000/svg"><path d="M4 4C1.79 4 .019531 5.79.019531 8L0 40c0 2.21 1.770469 4 3.980469 4L22 44l0-9-17.666016 0 5.832031-7.5 4.167969 5.007813L20.166016 25 22 27.445313 22 18 18 18 18 7 22 11 22 6 20 4 4 4ZM28 2c-2.21 0-4 1.79-4 4l0 36c0 2.21 1.79 4 4 4l16 0c2.21 0 4-1.79 4-4L48 6C48 3.79 46.21 2 44 2L28 2Zm0 4l16 0 0 36-16 0 0-4 8 0 0-4-8 0 0-4 8 0 0-4-8 0 0-4 8 0 0-4-8 0 0-4 8 0 0-4-8 0 0-4z" fill="#dd5900"/></svg>
